Kurtis_Portfolio/src/assets/Abtassets/pr.svg

<?xml version="1.0" encoding="UTF-8"?>
<svg id="Layer_1" data-name="Layer 1" xmlns="http://www.w3.org/2000/svg" viewBox="0 0 521.65 508.61">
  <defs>
    <style>
      .cls-1 {
        fill: #99f;
      }

      .cls-2 {
        fill: #00005b;
      }
    </style>
  </defs>
  <g id="Layer_2" data-name="Layer 2">
    <g id="Surfaces">
      <g id="Video_Audio_Surface" data-name="Video Audio Surface">
        <g id="Outline_no_shadow" data-name="Outline no shadow">
          <path class="cls-2" d="M92.37,0h336.9c51.08,0,92.37,41.3,92.37,92.37v323.86c0,51.08-41.3,92.37-92.37,92.37H92.37c-51.08,0-92.37-41.3-92.37-92.37V92.37C0,41.3,41.3,0,92.37,0Z"/>
        </g>
      </g>
    </g>
    <g id="Outlined_Mnemonics_Logos" data-name="Outlined Mnemonics Logos">
      <g id="Pr">
        <path class="cls-1" d="M123.89,356.68v-223.66c0-1.52.65-2.39,2.17-2.39,3.69,0,7.17,0,12.17-.22,5.22-.22,10.65-.22,16.52-.43,5.87-.22,12.17-.22,18.91-.43,6.74-.22,13.26-.22,19.78-.22,17.82,0,32.6,2.17,44.77,6.74,10.87,3.69,20.87,9.78,29.13,17.82,6.96,6.96,12.39,15.43,15.87,24.78,3.26,9.13,5,18.48,5,28.26,0,18.69-4.35,34.12-13.04,46.3-8.69,12.17-20.87,21.3-34.99,26.52-14.78,5.43-31.08,7.39-48.9,7.39-5.22,0-8.69,0-10.87-.22-2.17-.22-5.22-.22-9.35-.22v69.77c.22,1.52-.87,2.83-2.39,3.04h-42.17c-1.74,0-2.61-.87-2.61-2.83ZM171.27,172.58v73.03c3.04.22,5.87.43,8.48.43h11.52c8.48,0,16.95-1.3,25-3.91,6.96-1.96,13.04-6.09,17.82-11.52,4.56-5.43,6.74-12.82,6.74-22.39.22-6.74-1.52-13.48-5-19.34-3.69-5.65-8.91-10-15.21-12.39-8.04-3.26-16.74-4.56-25.65-4.35-5.65,0-10.65,0-14.78.22-4.35-.22-7.39,0-8.91.22h0Z"/>
        <path class="cls-1" d="M318.64,185.18h38.04c2.17,0,3.91,1.52,4.56,3.48.65,1.74,1.09,3.48,1.3,5.43.43,2.17.87,4.56,1.09,6.74.22,2.39.43,5,.43,7.82,6.52-7.61,14.35-13.91,23.26-18.69,10-5.65,21.52-8.48,33.04-8.48,1.52-.22,2.83.87,3.04,2.39v43.25c0,1.74-1.09,2.39-3.48,2.39-7.82-.22-15.87.43-23.47,2.17-6.3,1.3-12.39,3.26-18.26,5.87-4.13,1.96-8.04,4.56-11.08,8.04v110.85c0,2.17-.87,3.04-2.83,3.04h-42.82c-1.74.22-3.26-.87-3.48-2.61v-121.28c0-5.22,0-10.65-.22-16.3-.22-5.65-.22-11.3-.43-16.95,0-5-.43-9.78-.87-14.78-.22-1.09.43-2.17,1.52-2.39,0-.22.43-.22.65,0h0Z"/>
      </g>
    </g>
  </g>
</svg>

<svg width="522" height="509" viewBox="0 0 522 509" fill="none" xmlns="http://www.w3.org/2000/svg">
<g clip-path="url(#clip0_116_65)">
<path d="M92.37 0H429.27C480.35 0 521.64 41.3 521.64 92.37V416.23C521.64 467.31 480.34 508.6 429.27 508.6H92.37C41.29 508.6 0 467.3 0 416.23V92.37C0 41.3 41.3 0 92.37 0Z" fill="black"/>
<path d="M123.89 356.68V133.02C123.89 131.5 124.54 130.63 126.06 130.63C129.75 130.63 133.23 130.63 138.23 130.41C143.45 130.19 148.88 130.19 154.75 129.98C160.62 129.76 166.92 129.76 173.66 129.55C180.4 129.33 186.92 129.33 193.44 129.33C211.26 129.33 226.04 131.5 238.21 136.07C249.08 139.76 259.08 145.85 267.34 153.89C274.3 160.85 279.73 169.32 283.21 178.67C286.47 187.8 288.21 197.15 288.21 206.93C288.21 225.62 283.86 241.05 275.17 253.23C266.48 265.4 254.3 274.53 240.18 279.75C225.4 285.18 209.1 287.14 191.28 287.14C186.06 287.14 182.59 287.14 180.41 286.92C178.24 286.7 175.19 286.7 171.06 286.7V356.47C171.28 357.99 170.19 359.3 168.67 359.51H126.5C124.76 359.51 123.89 358.64 123.89 356.68ZM171.27 172.58V245.61C174.31 245.83 177.14 246.04 179.75 246.04H191.27C199.75 246.04 208.22 244.74 216.27 242.13C223.23 240.17 229.31 236.04 234.09 230.61C238.65 225.18 240.83 217.79 240.83 208.22C241.05 201.48 239.31 194.74 235.83 188.88C232.14 183.23 226.92 178.88 220.62 176.49C212.58 173.23 203.88 171.93 194.97 172.14C189.32 172.14 184.32 172.14 180.19 172.36C175.84 172.14 172.8 172.36 171.28 172.58H171.27Z" fill="white"/>
<path d="M318.64 185.18H356.68C358.85 185.18 360.59 186.7 361.24 188.66C361.89 190.4 362.33 192.14 362.54 194.09C362.97 196.26 363.41 198.65 363.63 200.83C363.85 203.22 364.06 205.83 364.06 208.65C370.58 201.04 378.41 194.74 387.32 189.96C397.32 184.31 408.84 181.48 420.36 181.48C421.88 181.26 423.19 182.35 423.4 183.87V227.12C423.4 228.86 422.31 229.51 419.92 229.51C412.1 229.29 404.05 229.94 396.45 231.68C390.15 232.98 384.06 234.94 378.19 237.55C374.06 239.51 370.15 242.11 367.11 245.59V356.44C367.11 358.61 366.24 359.48 364.28 359.48H321.46C319.72 359.7 318.2 358.61 317.98 356.87V235.59C317.98 230.37 317.98 224.94 317.76 219.29C317.54 213.64 317.54 207.99 317.33 202.34C317.33 197.34 316.9 192.56 316.46 187.56C316.24 186.47 316.89 185.39 317.98 185.17C317.98 184.95 318.41 184.95 318.63 185.17L318.64 185.18Z" fill="white"/>
</g>
<defs>
<clipPath id="clip0_116_65">
<rect width="521.65" height="508.61" fill="white"/>
</clipPath>
</defs>
</svg>
